X: 296
T: the Peeler and the Goat
B: O'Neill's 296
N: "Lively"
N: "Collected by F.O'Neill"
Z: 1997 by John Chambers <jc@trillian.mit.edu>
M: 6/8
L: 1/8
K:Am
(A/B/) \
| (c2A) BAG | (A2B) (c2d) | efe (d2c) | (B2G) GAB \
| (c2A) BAG | (A2B) (c2d) | e^fg =fed | e2A A2 ||
|| ^f \
| (g2e) dcd | e^f^g (a2b) | age (d2g) | (B2G) GAB \
| (c2A) BAG | (A2B) (c2d) | e^fg =fed | e2A A2 ||


